X: 2146
T: the HONEYMOON
C: Jas.YOUNG.
Q: "Reel."
R: Reel.
%R: reel
B: James Kerr "Merry Melodies" v.2 p.17 #146
Z: 2016 John Chambers <jc:trillian.mit.edu>
M: C
L: 1/8
K: D
uA |\
Addd dffa | gfed (ce)A2 |\
Addd dffa | gfge d3 ::\
uA |\
(dA)A2 BcdB | AFED (CE)E2 |\
(dA)A2 Bcde | fgef d3 :|
